src/cmd/sc_outlinebullet.svg

<svg viewBox="0 0 16 16" xmlns="http://www.w3.org/2000/svg">/&gt;<path d="m2 2v12h12v-12zm1 1h10v10h-10zm2 1c-.5522847 0-1 .4477153-1 1s.4477153 1 1 1 1-.4477153 1-1-.4477153-1-1-1zm2 0v1h5v-1zm0 2v1h3v-1zm-2 3c-.5522847 0-1 .4477153-1 1 0 .552285.4477153 1 1 1s1-.447715 1-1c0-.5522847-.4477153-1-1-1zm2 0v1h5v-1zm0 2v1h2v-1zm3 0v1h2v-1z" fill="#232629"/></svg>

<?xml version="1.0" encoding="UTF-8" standalone="no"?>
<svg
   xmlns:dc="http://purl.org/dc/elements/1.1/"
   xmlns:cc="http://creativecommons.org/ns#"
   xmlns:rdf="http://www.w3.org/1999/02/22-rdf-syntax-ns#"
   xmlns:svg="http://www.w3.org/2000/svg"
   xmlns="http://www.w3.org/2000/svg"
   xmlns:sodipodi="http://sodipodi.sourceforge.net/DTD/sodipodi-0.dtd"
   xmlns:inkscape="http://www.inkscape.org/namespaces/inkscape"
   viewBox="0 0 16 16"
   version="1.1"
   id="svg4"
   sodipodi:docname="sc_outlinebullet.svg"
   inkscape:version="0.92.4 (5da689c313, 2019-01-14)"><metadata
   id="metadata10">
  <rdf:RDF>
    <cc:Work
       rdf:about="">
      <dc:format>image/svg+xml</dc:format>
      <dc:type
         rdf:resource="http://purl.org/dc/dcmitype/StillImage" />
    </cc:Work>
  </rdf:RDF>
</metadata>
<defs
   id="defs8" />
<sodipodi:namedview
   pagecolor="#ffffff"
   bordercolor="#666666"
   borderopacity="1"
   objecttolerance="10"
   gridtolerance="10"
   guidetolerance="10"
   inkscape:pageopacity="0"
   inkscape:pageshadow="2"
   inkscape:window-width="1920"
   inkscape:window-height="1011"
   id="namedview6"
   showgrid="true"
   inkscape:zoom="41.7193"
   inkscape:cx="2.4398911"
   inkscape:cy="9.6096498"
   inkscape:window-x="0"
   inkscape:window-y="32"
   inkscape:window-maximized="1"
   inkscape:current-layer="svg4">
  <inkscape:grid
     type="xygrid"
     id="grid817" />
</sodipodi:namedview>
/&gt;<path
   d="M 2,2 V 14 H 14 V 2 Z M 3,3 H 13 V 13 H 3 Z M 5,4 C 4.4477153,4 4,4.4477153 4,5 4,5.5522847 4.4477153,6 5,6 5.5522847,6 6,5.5522847 6,5 6,4.4477153 5.5522847,4 5,4 Z m 2,0 v 1 h 5 V 4 Z m 0,2 v 1 h 5 V 6 Z M 5,9 C 4.4477153,9 4,9.4477153 4,10 4,10.552285 4.4477153,11 5,11 5.5522847,11 6,10.552285 6,10 6,9.4477153 5.5522847,9 5,9 Z m 2,0 v 1 h 5 V 9 Z m 0,2 v 1 h 5 v -1 z"
   id="path2"
   inkscape:connector-curvature="0"
   style="fill:#232629"
   sodipodi:nodetypes="ccccccccccsssssccccccccccssssscccccccccc" />
</svg>
